X: 30855
T: Out On The Beach
R: waltz
M: 3/4
K: Gmajor
D2|D2 G2 A2|B2 Bc BG|A3 B AG|E3 G G/F/E|D3 G GA|B2 d2 G2|A6-|A4 GE|
D2 G2 A2|B2 Bc BG|A3 B AG|E3 G FE|D2 G2 B2|D2 F3 A|G6-|G4||
Bc|d4 B2|d4 B2|d6|B4 e2|e3 c Gc|EG AE GE|d6-|d3 G G/F/E|
D2 G2 A2|B2 A2 G2|A4 E2|G4 G/F/E|D2 G2 B2|D2 F2 D2|G6-|G4||

